X:1
T:Title
%%score [ 1 2 3 4 ]
L:1/8
Q:1/4=120
M:3/4
K:G
V:1 treble nm="MusicXML Part"
V:2 treble nm="MusicXML Part"
V:3 treble-8 nm="MusicXML Part"
V:4 bass nm="MusicXML Part"
V:1
"^In der Ferne""^Andante""^Op. 67 Nr. 3 (Nun leb wohl, du kleine Gasse)"!<(! GA | B3 G!>(! G!<)!E | %2
w: Nun leb|wohl, du klei- ne|
w: Hier in|wei- ter, wei- ter|
w: A- ndre|Stä- dtchen ko- mmen|
w: A- ndre|Stä- dtchen, a- ndre|
"^Friedrich Silcher (1789-1860)\n1857 (1855)" (E>!>)!D) D2!<(! DG!<)! |!>(! A3 G!>)! c>B | %4
w: Ga * sse, nun a-|de, du sti- lles|
w: Fer * ne, wie´s mich|nach der Hei- mat|
w: frei * lich, a- ndre|Mä- dchen zu Ge-|
w: Mä * dchen ich da|mi- tten- drin so|
 A4"^mf" A>E | (G>F) F2 A>E | (G>F) F2 z2 |"^p" G>D ED G!<(!A | (B2!<)!!>(! d2 c2) | %9
w: Dach! Va- ter,|Mu * tter sahn mir|trau * rig|und die Lie- bste sah mir|nach * *|
w: zieht! Lu- stig|si * ngen die Ge-|se * llen,|doch es ist das fa- lsche|Lied * *|
w: sicht; ach! wohl|sind * es a- ndre|Mä * dchen,|doch die Ei- ne ist es|nicht * *|
w: stumm! A- ndre|Mä * dchen, a- ndre|Stä * dtchen,|o wie ger- ne kehrt´ ich|um! * *|
"^p" B>!>)!B BG!>(! B!>)!!>(!A | G4!>)! |] %11
w: und die Lie- bste sah mir|nach.|
w: doch es ist das fa- lsche|Lied.|
w: doch die Ei- ne ist es|nicht.|
w: o wie ger- ne kehrt´ ich|um!|
V:2
 GG | G3 D EC | (C>B,) B,2 DG | F3 G F>G | F4"^mf" E>E | (E>D) D2 ^C>C | (E>D) D2 z2 | %7
"^p" D>D CB, DF | (G2 B2 A2) |"^p" G>G GD FF | D4 |] %11
V:3
!<(! Bc | d3 B!>(! c!<)!G | G2!>)! G2!<(! Bd!<)! |!>(! d3 d!>)! d>d | d4"^mf" A>A | A2 A2 A>A | %6
w: Nun leb|wohl, du klei- ne|Ga- sse, nun a-|de, du sti- lles|Dach! Va- ter,|Mu- tter sahn mir|
w: Hier in|wei- ter, wei- ter|Fer ne, wie´s mich|nach der Hei- mat|zieht! Lu- stig|si ngen die Ge-|
w: A- ndre|Stä- dtchen ko- mmen|frei lich, a- ndre|Mä- dchen zu Ge-|sicht; ach! wohl|sind es a- ndre|
w: A- ndre|Stä- dtchen, a- ndre|Mä dchen ich da|mi- tten- drin so|stumm! A- ndre|Mä dchen, a- ndre|
 A2 A2 z2 |"^p" B>B cG d!<(!d | (d2!<)!!>(! g2 e2) |"^p" d>!>)!d dB!>(! d!>)!!>(!c | B4!>)! |] %11
w: trau- rig|und die Lie- bste sah mir|nach * *|und die Lie- bste sah mir|nach.|
w: se llen,|doch es ist das fa- lsche|Lied * *|doch es ist das fa- lsche|Lied.|
w: Mä dchen,|doch die Ei- ne ist es|nicht * *|doch die Ei- ne ist es|nicht.|
w: Stä dtchen,|o wie ger- ne kehrt´ ich|um! * *|o wie ger- ne kehrt´ ich|um!|
V:4
!<(! G,G, | G,3 G,!>(! C,!<)!E, | G,2!>)! G,2!<(! G,B,!<)! |!>(! C3 B,!>)! A,>G, | %4
 D,4"^mf" ^C,>C, | D,2 D,2 A,,>A,, | D,2 D,2 z2 |"^p" G,>G, G,G, B,!<(!D | (G,4!<)!!>(! C,2) | %9
"^p" D,>D,!>)! D,D,!>(! D,!>)!!>(!D, | G,,4!>)! |] %11

